static/img/misc/star-whole.svg

<svg fill="none" height="69" viewBox="0 0 70 69" width="70" xmlns="http://www.w3.org/2000/svg"><path d="m34.9999 4.43262 9.8018 18.57788 20.6976 3.5812-14.6397 15.063 2.99 20.7913-18.8497-9.2685-18.8497 9.2685 2.99-20.7913-14.63972-15.063 20.69762-3.5812z" fill="#fff" stroke="#fff" stroke-width="3.88715"/></svg>

<svg width="70" height="69" viewBox="0 0 70 69" fill="none" xmlns="http://www.w3.org/2000/svg">
<path d="M34.9999 4.43262L44.8017 23.0105L65.4993 26.5917L50.8596 41.6547L53.8496 62.446L34.9999 53.1775L16.1502 62.446L19.1402 41.6547L4.50048 26.5917L25.1981 23.0105L34.9999 4.43262Z" fill="white" stroke="white" stroke-width="3.88715"/>
</svg>
